!! 00007] TT[TB
!! NN
!!!OTL: Hua hama
!!!ARE: Asia, China,Shandong, Chengwu
!! Ethnic Group: Han
!! III, 406
!!!SCT: C0162
!!!YEM: Copyright 1995, estate of Helmut Schaffrath.
**kern
*ICvox
*Ivox
*M2/4
*k[]
*C:
{8g
8cc
8g
8r
=1
8g
8cc
8g
8r}
=2
{8cc
16cc
16cc
8b
8cc
=3
4dd
8g
8r}
=4
{8cc
8r
4g
=5
8dd
8r
8g
8r}
=6
{8cc
8r
4g
=7
8dd
8r
8g
8r}
=8
{8cc
16g
16a
4cc
=9
8e
8a
4g}
=10
{8cc
16g
16a
4cc
=11
8e
8a
4g}
=12
{8.ee
16dd
8ee
8dd
=13
8cc
16g
16a
4g}
=14
{8cc
8r
8cc
8r
=15
8g
8r
8g
8r}
=16
{8cc
8r
8cc
8r
=17
8g
8r
8g
8r}
=18
{8dd
8r
4r
=19
8.ee
16dd
8cc
8r
=20
8cc
16g
16a
4g}
=21
{8.ee
16dd
8cc
8r
=22
8cc
16g
16a
4g}
=23
{2dd
=24
8.ee
16dd
8cc
8dd
=25
4cc
4r}
=26
{8cc
8r
8g
8r
=27
8dd
8r
8g
8r}
=28
{8cc
8r
8cc
8r
=29
8g
8r
8g
8r
=30
4r
4g}
==
!!!AGN: Kinderlied, Er ge; Imitation des Ochsenfroschs
!! Saengerin: Huang Bai (?) hua hama
!!    Auch dokumentiert unter C1396!!++Pruefen!!!
!!!ONB: ESAC (Essen Associative Code) Database: CHINA_038
!!!AMT: simple duple
!!!AIN: vox
!!!EED: Helmut Schaffrath
!!!EEV: 1.0
*-
